images/category_icons/monetization-icon.svg

<svg width="85" height="80" viewBox="0 0 85 80" fill="none" xmlns="http://www.w3.org/2000/svg">
<path d="M39.5712 41.4148C40.5738 41.7785 49.2861 36.1109 50.2912 35.705C51.2709 35.1392 51.8559 34.1259 51.8557 32.9945C51.8557 31.8632 51.2707 30.8501 50.291 30.2845L41.1361 24.9988C39.1525 23.7615 36.3622 25.3731 36.4417 27.7091V38.2802C36.3976 39.9709 37.9009 41.4412 39.5712 41.4148ZM38.9259 27.7091C38.99 27.1112 39.4386 26.9423 39.8937 27.1503L49.0486 32.436C49.499 32.7744 49.4993 33.2148 49.0486 33.5535L39.8937 38.839C39.3534 39.0521 39.0112 38.855 38.9259 38.2802V27.7091Z" fill="black"/>
<path d="M29.4958 22.6952C28.9217 22.3192 28.1519 22.4794 27.7759 23.0534C25.9131 25.8969 24.9286 29.204 24.9286 32.6171C24.9286 42.2522 32.7673 50.0908 42.4023 50.0908C52.0374 50.0908 59.8761 42.2522 59.8761 32.6171C59.8761 22.982 52.0374 15.1434 42.4023 15.1434C38.727 15.1434 35.2101 16.2718 32.2323 18.4064C31.6748 18.8061 31.5467 19.5822 31.9464 20.1399C32.3462 20.6974 33.1225 20.8254 33.6799 20.4257C36.2332 18.5954 39.2493 17.6278 42.4023 17.6278C50.6675 17.6278 57.3917 24.3519 57.3917 32.6171C57.3917 40.8823 50.6675 47.6064 42.4023 47.6064C34.1372 47.6064 27.413 40.8823 27.413 32.6171C27.413 29.6888 28.2572 26.8526 29.854 24.4151C30.23 23.8412 30.0697 23.071 29.4958 22.6952Z" fill="black"/>
<path d="M84.803 7.86907C84.803 3.53111 81.2737 0.00174288 76.9357 0.00174288H67.7434C67.0572 0.00174288 66.5012 0.557756 66.5012 1.24395C66.5012 1.93015 67.0572 2.48616 67.7434 2.48616H76.9357C79.9039 2.48616 82.3186 4.90085 82.3186 7.86907V52.8037C81.595 51.5744 80.7306 50.4381 79.7468 49.4168C79.7491 49.386 79.7514 49.3554 79.7514 49.3241V9.59491C79.7514 7.08349 77.7081 5.04014 75.1966 5.04014H9.608C7.09659 5.04014 5.05324 7.08349 5.05324 9.59491V55.6395C5.05324 58.1509 7.09659 60.1942 9.608 60.1942H22.0301C22.7163 60.1942 23.2723 59.6382 23.2723 58.952C23.2723 58.2658 22.7163 57.7098 22.0301 57.7098H9.608C8.46633 57.7098 7.53766 56.7811 7.53766 55.6395V9.59491C7.53766 8.45324 8.46633 7.52456 9.608 7.52456H75.1966C76.3383 7.52456 77.267 8.45324 77.267 9.59491V47.2686C74.3032 45.137 70.6707 43.8799 66.7496 43.8799C58.2491 43.8799 51.1029 49.786 49.1964 57.7098H27.8271C27.1409 57.7098 26.5849 58.2658 26.5849 58.952C26.5849 59.6382 27.1409 60.1942 27.8271 60.1942H48.7803C48.7015 61.0088 48.6763 61.8535 48.7127 62.6786H7.86891C4.90069 62.6786 2.48601 60.2646 2.48601 57.2972V7.86907C2.48601 4.9512 5.0269 2.48616 8.03454 2.48616H61.9464C62.6326 2.48616 63.1886 1.93015 63.1886 1.24395C63.1886 0.557756 62.6326 0.00174288 61.9464 0.00174288H8.03454C3.82179 -0.0923337 -0.0903351 3.63578 0.0015884 7.86907V57.2972C0.0015884 61.6345 3.53095 65.1631 7.86891 65.1631H28.8831L26.0052 70.5592H20.7879C18.185 70.5592 16.0675 72.6768 16.0675 75.2796C16.0675 77.8825 18.185 80 20.7879 80H64.0068C64.3321 80 64.6557 79.9652 64.9726 79.8993C65.5573 79.9568 66.1499 79.9867 66.7495 79.9867C76.7042 79.9867 84.8029 71.888 84.8029 61.9333C84.8029 61.9148 84.8022 61.8962 84.8022 61.8778C84.8022 61.8732 84.8029 61.8686 84.8029 61.8639V7.86907H84.803ZM31.6986 65.1631H48.9859C49.3343 67.084 49.9876 68.9001 50.8937 70.5592H28.8207L31.6986 65.1631ZM20.7879 77.5156C19.555 77.5156 18.5519 76.5125 18.5519 75.2796C18.5519 74.0467 19.555 73.0436 20.7879 73.0436H26.744C26.7458 73.0436 26.7477 73.044 26.7493 73.044C26.751 73.044 26.7526 73.0436 26.7541 73.0436H52.5295C53.9335 74.8367 55.6689 76.3578 57.6424 77.5156H20.7879ZM66.7496 77.5023C58.1648 77.5023 51.1806 70.5181 51.1806 61.9333C51.1806 53.3485 58.1648 46.3643 66.7496 46.3643C75.3344 46.3643 82.3186 53.3485 82.3186 61.9333C82.3186 70.5181 75.3344 77.5023 66.7496 77.5023Z" fill="black"/>
<path d="M71.1388 57.5441C71.1388 58.2303 71.6948 58.7863 72.381 58.7863C73.0672 58.7863 73.6232 58.2303 73.6232 57.5441C73.6232 54.8102 71.2327 52.5262 68.0746 52.0188V50.0908C68.0746 49.4046 67.5186 48.8486 66.8324 48.8486C66.1462 48.8486 65.5902 49.4046 65.5902 50.0908V51.9944C62.3505 52.4474 59.8761 54.7627 59.8761 57.5441C59.8761 60.3255 62.3505 62.6406 65.5902 63.0936V69.352C63.7524 68.9769 62.3605 67.7416 62.3605 66.3224C62.3605 65.6362 61.8045 65.0802 61.1183 65.0802C60.4321 65.0802 59.8761 65.6362 59.8761 66.3224C59.8761 69.1038 62.3505 71.4189 65.5902 71.8719V73.7756C65.5902 74.4618 66.1462 75.0178 66.8324 75.0178C67.5186 75.0178 68.0746 74.4618 68.0746 73.7756V71.8477C71.2327 71.3402 73.6232 69.0562 73.6232 66.3224C73.6232 63.5885 71.2327 61.3045 68.0746 60.797V54.5504C69.8298 54.9643 71.1388 56.1677 71.1388 57.5441ZM62.3605 57.5441C62.3605 56.1248 63.7524 54.8896 65.5902 54.5144V60.5738C63.7523 60.1986 62.3605 58.9634 62.3605 57.5441ZM71.1388 66.3224C71.1388 67.6987 69.8298 68.9022 68.0746 69.3159V63.3288C69.8298 63.7426 71.1388 64.946 71.1388 66.3224Z" fill="black"/>
</svg>

<svg xmlns="http://www.w3.org/2000/svg" fill="none" viewBox="0 0 85 80"><path fill="#000" d="M39.571 41.415c1.003.364 9.715-5.304 10.72-5.71a3.098 3.098 0 001.565-2.71 3.097 3.097 0 00-1.565-2.71l-9.155-5.286c-1.983-1.237-4.774.374-4.694 2.71V38.28c-.044 1.69 1.459 3.161 3.13 3.135zm-.645-13.706c.064-.598.513-.767.968-.559l9.155 5.286c.45.338.45.779 0 1.117l-9.155 5.286c-.54.213-.883.016-.968-.559V27.71z"/><path fill="#000" d="M29.496 22.695a1.242 1.242 0 00-1.72.358 17.404 17.404 0 00-2.847 9.564c0 9.635 7.838 17.474 17.473 17.474 9.635 0 17.474-7.839 17.474-17.474s-7.839-17.474-17.474-17.474a17.354 17.354 0 00-10.17 3.263 1.242 1.242 0 001.448 2.02 14.883 14.883 0 018.722-2.798c8.265 0 14.99 6.724 14.99 14.99 0 8.264-6.725 14.988-14.99 14.988s-14.989-6.724-14.989-14.989c0-2.928.844-5.764 2.441-8.202a1.242 1.242 0 00-.358-1.72z"/><path fill="#000" d="M84.803 7.87c0-4.339-3.53-7.868-7.867-7.868h-9.193a1.242 1.242 0 100 2.484h9.193a5.389 5.389 0 015.383 5.383v44.935a18.165 18.165 0 00-2.572-3.387c.002-.031.004-.062.004-.093V9.594a4.56 4.56 0 00-4.554-4.554H9.608a4.56 4.56 0 00-4.555 4.555v46.044a4.56 4.56 0 004.555 4.555H22.03a1.242 1.242 0 100-2.484H9.608a2.073 2.073 0 01-2.07-2.07V9.594c0-1.142.928-2.07 2.07-2.07h65.589c1.141 0 2.07.928 2.07 2.07v37.674a17.955 17.955 0 00-10.517-3.39c-8.5 0-15.647 5.907-17.554 13.83H27.827a1.242 1.242 0 100 2.485H48.78c-.078.815-.104 1.66-.067 2.485H7.869a5.388 5.388 0 01-5.383-5.382V7.87c0-2.918 2.54-5.383 5.549-5.383h53.911a1.242 1.242 0 100-2.484H8.035C3.822-.092-.09 3.636.002 7.869v49.428c0 4.338 3.529 7.866 7.867 7.866h21.014l-2.878 5.396h-5.217a4.726 4.726 0 00-4.72 4.72A4.726 4.726 0 0020.787 80h43.219c.325 0 .649-.035.966-.1a18.15 18.15 0 001.776.087c9.955 0 18.054-8.099 18.054-18.054v-.055V7.869zM31.699 65.162h17.287a17.924 17.924 0 001.908 5.396H28.82l2.878-5.396zM20.788 77.516a2.239 2.239 0 01-2.236-2.236 2.239 2.239 0 012.236-2.236h31.741a18.188 18.188 0 005.113 4.472H20.788zm45.962-.014c-8.585 0-15.57-6.984-15.57-15.569 0-8.584 6.985-15.569 15.57-15.569 8.584 0 15.569 6.985 15.569 15.57 0 8.584-6.985 15.568-15.57 15.568z"/><path fill="#000" d="M71.139 57.544a1.242 1.242 0 102.484 0c0-2.734-2.39-5.018-5.548-5.525V50.09a1.242 1.242 0 10-2.485 0v1.903c-3.24.453-5.714 2.769-5.714 5.55 0 2.782 2.474 5.097 5.714 5.55v6.258c-1.838-.375-3.23-1.61-3.23-3.03a1.242 1.242 0 10-2.484 0c0 2.782 2.474 5.097 5.714 5.55v1.904a1.242 1.242 0 102.485 0v-1.928c3.158-.508 5.548-2.792 5.548-5.526 0-2.733-2.39-5.018-5.548-5.525V54.55c1.755.414 3.064 1.618 3.064 2.994zm-8.778 0c0-1.42 1.391-2.654 3.23-3.03v6.06c-1.839-.375-3.23-1.61-3.23-3.03zm8.778 8.778c0 1.377-1.31 2.58-3.064 2.994v-5.987c1.755.414 3.064 1.617 3.064 2.993z"/></svg>
